build/svg/cmd/sc_changecasetoupper.svg

<?xml version="1.0" encoding="UTF-8" standalone="no"?>
<svg
   xmlns:dc="http://purl.org/dc/elements/1.1/"
   xmlns:cc="http://creativecommons.org/ns#"
   xmlns:rdf="http://www.w3.org/1999/02/22-rdf-syntax-ns#"
   xmlns:svg="http://www.w3.org/2000/svg"
   xmlns="http://www.w3.org/2000/svg"
   xmlns:sodipodi="http://sodipodi.sourceforge.net/DTD/sodipodi-0.dtd"
   xmlns:inkscape="http://www.inkscape.org/namespaces/inkscape"
   viewBox="0 0 16 16"
   version="1.1"
   id="svg6"
   sodipodi:docname="sc_changecasetoupper.svg"
   inkscape:version="0.92.5 (2060ec1f9f, 2020-04-08)"
   inkscape:export-filename="/home/jupiter007/Libreoffice yaru theme fullcolor/build/cmd/sc_changecasetoupper.png"
   inkscape:export-xdpi="96"
   inkscape:export-ydpi="96">
  <metadata
     id="metadata12">
    <rdf:RDF>
      <cc:Work
         rdf:about="">
        <dc:format>image/svg+xml</dc:format>
        <dc:type
           rdf:resource="http://purl.org/dc/dcmitype/StillImage" />
      </cc:Work>
    </rdf:RDF>
  </metadata>
  <defs
     id="defs10" />
  <sodipodi:namedview
     pagecolor="#ffffff"
     bordercolor="#666666"
     borderopacity="1"
     objecttolerance="10"
     gridtolerance="10"
     guidetolerance="10"
     inkscape:pageopacity="0"
     inkscape:pageshadow="2"
     inkscape:window-width="1920"
     inkscape:window-height="1011"
     id="namedview8"
     showgrid="true"
     inkscape:zoom="45.254834"
     inkscape:cx="3.9311632"
     inkscape:cy="8.6647343"
     inkscape:window-x="0"
     inkscape:window-y="32"
     inkscape:window-maximized="1"
     inkscape:current-layer="svg6">
    <inkscape:grid
       type="xygrid"
       id="grid872" />
  </sodipodi:namedview>
  <path
     id="path903"
     d="M 8 5 L 8 6 L 8 15 L 9.5722656 15 L 10.142578 15 L 12 15 C 13.802197 14.99956 15.284716 13.51704 15.285156 11.714844 L 15.285156 11.712891 C 15.283356 10.661344 14.675731 9.8115479 13.861328 9.203125 C 13.955968 8.8941428 14.142214 8.6137427 14.142578 8.2871094 L 14.142578 8.2851562 C 14.142138 6.4830035 12.659619 5.0004401 10.857422 5 L 10.142578 5 L 9.5722656 5 L 8 5 z M 10 7 L 10.769531 7 C 11.44893 7.0001349 11.999834 7.4477711 12 8 C 11.999834 8.5522289 11.44893 8.9998651 10.769531 9 L 10 9 L 10 7 z M 10 11 L 11.857422 11 C 12.488387 11.000135 12.999846 11.447771 13 12 C 12.999846 12.552229 12.488387 12.999865 11.857422 13 L 10 13 L 10 11 z "
     style="color:#000000;font-style:normal;font-variant:normal;font-weight:normal;font-stretch:normal;font-size:medium;line-height:normal;font-family:sans-serif;font-variant-ligatures:normal;font-variant-position:normal;font-variant-caps:normal;font-variant-numeric:normal;font-variant-alternates:normal;font-feature-settings:normal;text-indent:0;text-align:start;text-decoration:none;text-decoration-line:none;text-decoration-style:solid;text-decoration-color:#000000;letter-spacing:normal;word-spacing:normal;text-transform:none;writing-mode:lr-tb;direction:ltr;text-orientation:mixed;dominant-baseline:auto;baseline-shift:baseline;text-anchor:start;white-space:normal;shape-padding:0;clip-rule:nonzero;display:inline;overflow:visible;visibility:visible;opacity:0.6;isolation:auto;mix-blend-mode:normal;color-interpolation:sRGB;color-interpolation-filters:linearRGB;solid-color:#000000;solid-opacity:1;vector-effect:none;fill:#000000;fill-opacity:1;fill-rule:nonzero;stroke:#000000;stroke-width:2;stroke-linecap:butt;stroke-linejoin:round;stroke-miterlimit:4;stroke-dasharray:none;stroke-dashoffset:0;stroke-opacity:1;color-rendering:auto;image-rendering:auto;shape-rendering:auto;text-rendering:auto;enable-background:accumulate" />
  <path
     style="color:#000000;font-style:normal;font-variant:normal;font-weight:normal;font-stretch:normal;font-size:medium;line-height:normal;font-family:sans-serif;font-variant-ligatures:normal;font-variant-position:normal;font-variant-caps:normal;font-variant-numeric:normal;font-variant-alternates:normal;font-feature-settings:normal;text-indent:0;text-align:start;text-decoration:none;text-decoration-line:none;text-decoration-style:solid;text-decoration-color:#000000;letter-spacing:normal;word-spacing:normal;text-transform:none;writing-mode:lr-tb;direction:ltr;text-orientation:mixed;dominant-baseline:auto;baseline-shift:baseline;text-anchor:start;white-space:normal;shape-padding:0;clip-rule:nonzero;display:inline;overflow:visible;visibility:visible;opacity:1;isolation:auto;mix-blend-mode:normal;color-interpolation:sRGB;color-interpolation-filters:linearRGB;solid-color:#000000;solid-opacity:1;vector-effect:none;fill:#ffffff;fill-opacity:1;fill-rule:nonzero;stroke:none;stroke-width:2;stroke-linecap:butt;stroke-linejoin:miter;stroke-miterlimit:4;stroke-dasharray:none;stroke-dashoffset:0;stroke-opacity:1;color-rendering:auto;image-rendering:auto;shape-rendering:auto;text-rendering:auto;enable-background:accumulate"
     d="M 8 5 L 8 6 L 8 15 L 9.5722656 15 L 10.142578 15 L 12 15 C 13.802197 14.99956 15.284716 13.51704 15.285156 11.714844 L 15.285156 11.712891 C 15.283356 10.661344 14.675731 9.8115479 13.861328 9.203125 C 13.955968 8.8941428 14.142214 8.6137427 14.142578 8.2871094 L 14.142578 8.2851562 C 14.142138 6.4830035 12.659619 5.0004401 10.857422 5 L 10.142578 5 L 9.5722656 5 L 8 5 z M 10 7 L 10.769531 7 C 11.44893 7.0001349 11.999834 7.4477711 12 8 C 11.999834 8.5522289 11.44893 8.9998651 10.769531 9 L 10 9 L 10 7 z M 10 11 L 11.857422 11 C 12.488387 11.000135 12.999846 11.447771 13 12 C 12.999846 12.552229 12.488387 12.999865 11.857422 13 L 10 13 L 10 11 z "
     id="path880" />
  <path
     sodipodi:nodetypes="ccccccccccccccccc"
     inkscape:connector-curvature="0"
     id="path936"
     d="M 4.537068,5 4.3007399,5.6660156 0.99995858,15 H 3.2171383 L 4.1917477,12.714844 H 7.565943 L 8.440943,15 h 2.2055 L 7.4062086,5 H 7.271443 6.2909742 5.6952711 Z M 5.9413649,7.2402344 4.7577711,10.572266 h 2.2558594 z"
     style="color:#000000;font-style:normal;font-variant:normal;font-weight:normal;font-stretch:normal;font-size:medium;line-height:normal;font-family:sans-serif;font-variant-ligatures:normal;font-variant-position:normal;font-variant-caps:normal;font-variant-numeric:normal;font-variant-alternates:normal;font-feature-settings:normal;text-indent:0;text-align:start;text-decoration:none;text-decoration-line:none;text-decoration-style:solid;text-decoration-color:#000000;letter-spacing:normal;word-spacing:normal;text-transform:none;writing-mode:lr-tb;direction:ltr;text-orientation:mixed;dominant-baseline:auto;baseline-shift:baseline;text-anchor:start;white-space:normal;shape-padding:0;clip-rule:nonzero;display:inline;overflow:visible;visibility:visible;opacity:0.6;isolation:auto;mix-blend-mode:normal;color-interpolation:sRGB;color-interpolation-filters:linearRGB;solid-color:#000000;solid-opacity:1;vector-effect:none;fill:#000000;fill-opacity:1;fill-rule:evenodd;stroke:#000000;stroke-width:2;stroke-linecap:butt;stroke-linejoin:round;stroke-miterlimit:4;stroke-dasharray:none;stroke-dashoffset:0;stroke-opacity:1;color-rendering:auto;image-rendering:auto;shape-rendering:auto;text-rendering:auto;enable-background:accumulate" />
  <path
     style="color:#000000;font-style:normal;font-variant:normal;font-weight:normal;font-stretch:normal;font-size:medium;line-height:normal;font-family:sans-serif;font-variant-ligatures:normal;font-variant-position:normal;font-variant-caps:normal;font-variant-numeric:normal;font-variant-alternates:normal;font-feature-settings:normal;text-indent:0;text-align:start;text-decoration:none;text-decoration-line:none;text-decoration-style:solid;text-decoration-color:#000000;letter-spacing:normal;word-spacing:normal;text-transform:none;writing-mode:lr-tb;direction:ltr;text-orientation:mixed;dominant-baseline:auto;baseline-shift:baseline;text-anchor:start;white-space:normal;shape-padding:0;clip-rule:nonzero;display:inline;overflow:visible;visibility:visible;opacity:1;isolation:auto;mix-blend-mode:normal;color-interpolation:sRGB;color-interpolation-filters:linearRGB;solid-color:#000000;solid-opacity:1;vector-effect:none;fill:#ffffff;fill-opacity:1;fill-rule:evenodd;stroke:none;stroke-width:2;stroke-linecap:butt;stroke-linejoin:miter;stroke-miterlimit:4;stroke-dasharray:none;stroke-dashoffset:0;stroke-opacity:1;color-rendering:auto;image-rendering:auto;shape-rendering:auto;text-rendering:auto;enable-background:accumulate"
     d="M 4.537068,5 4.3007399,5.6660156 0.99995858,15 H 3.2171383 L 4.1917477,12.714844 H 7.565943 L 8.440943,15 h 2.2055 L 7.4062086,5 H 7.271443 6.2909742 5.6952711 Z M 5.9413649,7.2402344 4.7577711,10.572266 h 2.2558594 z"
     id="path882"
     inkscape:connector-curvature="0"
     sodipodi:nodetypes="ccccccccccccccccc" />
  <path
     style="fill:#000000;fill-opacity:1;stroke:#000000;opacity:0.6;stroke-width:2;stroke-miterlimit:4;stroke-dasharray:none;stroke-linejoin:round"
     inkscape:connector-curvature="0"
     id="path938"
     d="M 12.5,1 10,4 h 5 z" />
  <path
     d="M 12.5,1 10,4 h 5 z"
     id="path4"
     inkscape:connector-curvature="0"
     style="fill:#aee3f8;fill-opacity:1" />
</svg>

<svg xmlns="http://www.w3.org/2000/svg" viewBox="0 0 16 16"><path d="M8 5v10h4a3.301 3.301 0 003.285-3.285v-.002c-.002-1.052-.61-1.901-1.424-2.51.095-.309.281-.59.282-.916v-.002A3.301 3.301 0 0010.857 5H8zm2 2h.77c.679 0 1.23.448 1.23 1s-.551 1-1.23 1H10V7zm0 4h1.857c.631 0 1.143.448 1.143 1s-.512 1-1.143 1H10v-2z" style="line-height:normal;font-variant-ligatures:normal;font-variant-position:normal;font-variant-caps:normal;font-variant-numeric:normal;font-variant-alternates:normal;font-feature-settings:normal;text-indent:0;text-align:start;text-decoration-line:none;text-decoration-style:solid;text-decoration-color:#000;text-transform:none;text-orientation:mixed;white-space:normal;shape-padding:0;isolation:auto;mix-blend-mode:normal;solid-color:#000;solid-opacity:1" color="#000" font-weight="400" font-family="sans-serif" overflow="visible" opacity=".6" stroke="#000" stroke-width="2" stroke-linejoin="round"/><path style="line-height:normal;font-variant-ligatures:normal;font-variant-position:normal;font-variant-caps:normal;font-variant-numeric:normal;font-variant-alternates:normal;font-feature-settings:normal;text-indent:0;text-align:start;text-decoration-line:none;text-decoration-style:solid;text-decoration-color:#000;text-transform:none;text-orientation:mixed;white-space:normal;shape-padding:0;isolation:auto;mix-blend-mode:normal;solid-color:#000;solid-opacity:1" d="M8 5v10h4a3.301 3.301 0 003.285-3.285v-.002c-.002-1.052-.61-1.901-1.424-2.51.095-.309.281-.59.282-.916v-.002A3.301 3.301 0 0010.857 5H8zm2 2h.77c.679 0 1.23.448 1.23 1s-.551 1-1.23 1H10V7zm0 4h1.857c.631 0 1.143.448 1.143 1s-.512 1-1.143 1H10v-2z" color="#000" font-weight="400" font-family="sans-serif" overflow="visible" fill="#fff"/><path d="M4.537 5l-.236.666L1 15h2.217l.975-2.285h3.374L8.44 15h2.205L7.406 5H5.695zm1.404 2.24l-1.183 3.332h2.256z" style="line-height:normal;font-variant-ligatures:normal;font-variant-position:normal;font-variant-caps:normal;font-variant-numeric:normal;font-variant-alternates:normal;font-feature-settings:normal;text-indent:0;text-align:start;text-decoration-line:none;text-decoration-style:solid;text-decoration-color:#000;text-transform:none;text-orientation:mixed;white-space:normal;shape-padding:0;isolation:auto;mix-blend-mode:normal;solid-color:#000;solid-opacity:1" color="#000" font-weight="400" font-family="sans-serif" overflow="visible" opacity=".6" fill-rule="evenodd" stroke="#000" stroke-width="2" stroke-linejoin="round"/><path style="line-height:normal;font-variant-ligatures:normal;font-variant-position:normal;font-variant-caps:normal;font-variant-numeric:normal;font-variant-alternates:normal;font-feature-settings:normal;text-indent:0;text-align:start;text-decoration-line:none;text-decoration-style:solid;text-decoration-color:#000;text-transform:none;text-orientation:mixed;white-space:normal;shape-padding:0;isolation:auto;mix-blend-mode:normal;solid-color:#000;solid-opacity:1" d="M4.537 5l-.236.666L1 15h2.217l.975-2.285h3.374L8.44 15h2.205L7.406 5H5.695zm1.404 2.24l-1.183 3.332h2.256z" color="#000" font-weight="400" font-family="sans-serif" overflow="visible" fill="#fff" fill-rule="evenodd"/><path d="M12.5 1L10 4h5z" stroke="#000" opacity=".6" stroke-width="2" stroke-linejoin="round"/><path d="M12.5 1L10 4h5z" fill="#aee3f8"/></svg>
